X: 35129
T: Roly Gentle
R: waltz
M: 3/4
K: Dmajor
|:D2 DE FA|f2 fe dc|A2 AG FA|EA FA EA|
D2 DE FA|fe dc BA|EA cA GE|D6:|
|:dc de fd|ec A2 AG|F2 FE FA|EA FA EA|
dc de fd|ec AB cA|c2 cA cd|ed cA GE|
dc de fd|ec AB cA|F2 FE FA|EA FA EA|
dc de fa|gf ed cA|c2 cA cd|ed cA GE||

